X:5048
T:McGurran's Shore
M:4/4
R:Hornpipe
L:1/8
C:Aidan Crossey
K:D
|:(3ABA Fd fded|(3ABA Fd fded|Beef edBd|Beef edBd|
(3ABA Fd fded|(3ABA Fd fded|Beef edBc|dfef d2d2:||
|:(3ABA FA DEFG|(3ABA FA DEFA|(3BcB GF EFGA|(3BcB GF EFGB|
(3ABA FA DEFG|(3ABA FA DEFA|(3Bcd fd (3efe AG|(3FGF (3ABc d2d2:||
